svgs/sharp-solid/sd-card.svg

<svg xmlns="http://www.w3.org/2000/svg" viewBox="0 0 384 512"><!--! Font Awesome Pro 6.6.0 by @fontawesome - https://fontawesome.com License - https://fontawesome.com/license (Commercial License) Copyright 2024 Fonticons, Inc. --><path d="M384 0L352 0 128 0 114.7 0l-9.4 9.4-96 96L0 114.7 0 128 0 480l0 32 32 0 320 0 32 0 0-32 0-448 0-32zM160 88l0 48 0 24-48 0 0-24 0-48 0-24 48 0 0 24zm80 0l0 48 0 24-48 0 0-24 0-48 0-24 48 0 0 24zm80 0l0 48 0 24-48 0 0-24 0-48 0-24 48 0 0 24z"/></svg>

<svg xmlns="http://www.w3.org/2000/svg" viewBox="0 0 384 512"><!--! Font Awesome Pro 6.4.0 by @fontawesome - https://fontawesome.com License - https://fontawesome.com/license (Commercial License) Copyright 2023 Fonticons, Inc. --><path d="M384 0H352 128 114.7l-9.4 9.4-96 96L0 114.7V128 480v32H32 352h32V480 32 0zM160 88v48 24H112V136 88 64h48V88zm80 0v48 24H192V136 88 64h48V88zm80 0v48 24H272V136 88 64h48V88z"/></svg>
